src/icons/radar.svg

<svg width="64" height="65" viewBox="0 0 64 65" fill="none" xmlns="http://www.w3.org/2000/svg"> <path fill-rule="evenodd" clip-rule="evenodd" d="M52.0772 36.797C50.8745 33.5263 48.68 29.7657 45.5995 26.0119L48.654 22.9573C53.7629 29.0341 56.7805 35.4576 57.071 40.5379C57.3427 43.3696 56.751 45.7305 55.1792 47.3024C54.9643 47.5172 54.7348 47.7137 54.4913 47.8922C52.0685 50.1325 47.9285 51.9351 42.9543 52.2812L42.9577 52.2811C43.6604 54.2115 44.0299 56.2672 44.0299 58.361L42.0299 60.361L10.4805 60.361L8.48047 58.361C8.48047 53.6468 10.3532 49.1258 13.6866 45.7924C15.301 44.1779 17.1941 42.906 19.2528 42.0237C19.2537 42.0246 19.2545 42.0255 19.2553 42.0263V42.0252C8.14513 30.1304 10.0038 14.8879 15.0307 9.55482C16.3852 8.12151 18.2813 7.33442 20.5404 7.13884C24.1696 6.52201 29.132 7.94504 34.3563 11.0141C36.7417 12.344 39.165 13.9935 41.5343 15.9348L38.5659 18.9033C36.4822 17.1541 34.3902 15.6767 32.375 14.4893C30.2817 13.3251 28.2545 12.4512 26.3788 11.8805C24.1887 11.214 22.463 11.02 21.1368 11.1033C20.3863 11.2503 19.9089 11.524 19.6514 11.7815C18.9684 12.4645 18.1722 14.6933 19.9246 19.4588C21.5488 23.8755 24.9815 29.1859 29.9627 34.1661C34.9439 39.1463 40.2551 42.5782 44.6725 44.2018C48.7974 45.7179 51.0219 45.3254 51.9885 44.7496L52.0247 44.7126L52.055 44.6812C52.6788 44.0144 53.1824 42.7672 53.0849 40.8114C52.9732 39.7397 52.672 38.4145 52.0772 36.797ZM22.5135 45.1011L22.5146 45.1012C27.8968 49.6015 33.5016 51.6825 38.5824 52.2054L38.5778 52.2051C39.2286 53.5079 39.6711 54.9104 39.884 56.361L12.6264 56.361C13.0539 53.4474 14.4079 50.7279 16.515 48.6208C18.1963 46.9394 20.2676 45.7376 22.5162 45.1034C22.5153 45.1027 22.5144 45.1019 22.5135 45.1011ZM43.8817 48.1649C38.6685 46.3842 32.6364 42.4955 27.1344 36.9945C20.9255 30.7869 16.7698 23.9041 15.3801 18.2845C15.0885 19.8982 14.9705 21.7475 15.1277 23.7759C15.5424 29.1278 17.8706 35.284 23.4775 40.6033C30.7105 47.4654 38.2377 48.9078 43.8817 48.1649Z" fill="#0156DD"/> <path d="M53.3118 13.4976C53.7705 15.2097 52.7545 16.9695 51.0425 17.4282C50.6419 17.5356 50.2387 17.5622 49.8501 17.518L37.0569 30.3111L34.2285 27.4827L47.0224 14.6889C46.8449 13.1357 47.8258 11.6451 49.3812 11.2283C51.0933 10.7696 52.853 11.7856 53.3118 13.4976Z" fill="#0156DD"/> </svg>

<svg xmlns="http://www.w3.org/2000/svg" width="64" height="65" fill="none" viewBox="0 0 64 65"><path fill="#0156DD" fill-rule="evenodd" d="M52.077 36.797c-1.203-3.27-3.397-7.031-6.477-10.785l3.054-3.055c5.109 6.077 8.127 12.5 8.417 17.58.272 2.833-.32 5.194-1.892 6.765a6 6 0 0 1-.688.59c-2.422 2.24-6.562 4.043-11.537 4.39h.004a17.8 17.8 0 0 1 1.072 6.079l-2 2H10.48l-2-2a17.77 17.77 0 0 1 10.773-16.337l.002.002C8.145 30.13 10.004 14.887 15.031 9.554c1.354-1.433 3.25-2.22 5.51-2.416 3.629-.617 8.591.806 13.815 3.875 2.386 1.33 4.809 2.98 7.178 4.92l-2.968 2.97c-2.084-1.75-4.176-3.227-6.191-4.415-2.093-1.164-4.12-2.038-5.996-2.609-2.19-.666-3.916-.86-5.242-.777-.75.147-1.228.421-1.486.678-.683.683-1.479 2.912.274 7.678 1.624 4.416 5.057 9.727 10.038 14.707s10.292 8.412 14.71 10.036c4.124 1.516 6.349 1.123 7.316.548l.036-.037.03-.032c.624-.667 1.127-1.914 1.03-3.87-.112-1.071-.413-2.397-1.008-4.014M22.514 45.1c5.383 4.5 10.988 6.581 16.068 7.104h-.004a13.8 13.8 0 0 1 1.306 4.156H12.626a13.78 13.78 0 0 1 9.89-11.258zm21.368 3.064c-5.213-1.78-11.246-5.67-16.748-11.17-6.209-6.208-10.364-13.09-11.754-18.71a21.6 21.6 0 0 0-.252 5.49c.414 5.353 2.743 11.509 8.35 16.828 7.232 6.862 14.76 8.305 20.404 7.562" clip-rule="evenodd"/><path fill="#0156DD" d="M53.312 13.498a3.21 3.21 0 0 1-3.462 4.02L37.057 30.311l-2.829-2.828 12.794-12.794a3.21 3.21 0 0 1 6.29-1.191"/></svg>
